build/assets/fonts/1ff3d3f0d176196bbd3aaf4a6ecf7dac.svg

<svg width="100" height="60" viewBox="0 0 100 60" version="1.1" xmlns="http://www.w3.org/2000/svg" xmlns:xlink="http://www.w3.org/1999/xlink"><title>ApplePay-light</title><desc>Created with Sketch.</desc><g id="Light-Payment-badges" stroke="none" stroke-width="1" fill="none" fill-rule="evenodd" transform="translate(-610.000000, -789.000000)"><g id="ApplePay-light" transform="translate(610.000000, 789.000000)"><rect id="Rectangle" fill="#FFF" x="0" y="0" width="100" height="60" rx="4"/><path d="M32.8863275,26.9583905 C32.9233184,30.7827367 36.3852633,32.0551213 36.4235752,32.0714675 C36.394511,32.1616982 35.8706945,33.8852367 34.5997954,35.6663136 C33.5013,37.2054675 32.3605294,38.7393905 30.5651532,38.771429 C28.8001624,38.8028136 28.2327495,37.768429 26.2147679,37.768429 C24.1974468,37.768429 23.5666211,38.7393905 21.896089,38.8028136 C20.1628046,38.8655829 18.8423642,37.1374675 17.7346211,35.6035444 C15.4709147,32.4657367 13.740933,26.7373905 16.064089,22.8705444 C17.2180706,20.9501982 19.2796486,19.7340444 21.5182541,19.7033136 C23.2204927,19.671929 24.8276119,20.8011213 25.8686395,20.8011213 C26.9083459,20.8011213 28.8615936,19.4430829 30.9145844,19.6425059 C31.7739606,19.6771598 34.1862908,19.9753136 35.7352817,22.1493521 C35.6097771,22.2238905 32.8559422,23.7610829 32.8863275,26.9583905 M29.5690431,17.5665444 C30.4891899,16.4981598 31.1094468,15.0113136 30.9403459,13.5316598 C29.6133,13.5826598 28.0088229,14.3790444 27.0576303,15.4467752 C26.2041991,16.3922367 25.4577771,17.9052367 25.659245,19.3561213 C27.1382174,19.4659675 28.6488963,18.6355829 29.5690431,17.5665444" id="path2997" fill="#000"/><path d="M42.8915098,15.737921 C43.5738874,15.6241858 44.3257727,15.5220825 45.1491705,15.430965 C45.9719001,15.3398476 46.8768358,15.294612 47.8653142,15.294612 C49.2761851,15.294612 50.4925684,15.4593989 51.5151323,15.7889727 C52.5383646,16.1185465 53.3784711,16.5902894 54.03612,17.2042013 C54.6008694,17.7496137 55.0426437,18.3971293 55.3594381,19.1473943 C55.6762324,19.8976594 55.8339612,20.7616598 55.8339612,21.7393954 C55.8339612,22.9213375 55.6174182,23.9559408 55.1823273,24.8425589 C54.7479047,25.7291771 54.1544166,26.4736261 53.401863,27.0759061 C52.6486411,27.6781861 51.7557356,28.1266649 50.7211415,28.4226351 C49.6858791,28.7179591 48.557717,28.8659442 47.3346503,28.8659442 C46.2298803,28.8659442 45.3015526,28.7864588 44.5496674,28.6274879 L44.5496674,38.4487872 L42.8915098,38.4487872 L42.8915098,15.737921 L42.8915098,15.737921 Z M44.5496674,27.1961036 C44.9493362,27.3091927 45.3957889,27.3886781 45.889694,27.4339137 C46.383599,27.4791493 46.9122579,27.5017672 47.4763389,27.5017672 C49.5923111,27.5017672 51.2324235,27.0242083 52.3960077,26.0697367 C53.5595919,25.1152651 54.1417181,23.7168382 54.1417181,21.8757485 C54.1417181,20.9891303 53.989336,20.2156012 53.6839036,19.5564536 C53.3778027,18.8966598 52.9433801,18.3570634 52.3792991,17.9363722 C51.8152181,17.5156809 51.1448706,17.1977391 50.368925,16.9812544 C49.5923111,16.7654158 48.7341594,16.6574966 47.7931332,16.6574966 C47.041248,16.6574966 46.3942925,16.6859304 45.8536035,16.742798 C45.3129144,16.7996657 44.8778235,16.8623493 44.548999,16.9302027 L44.548999,27.1961036 L44.5496674,27.1961036 Z" id="path2995" fill="#000"/><path d="M69.0196893,34.561755 C69.0196893,35.2209026 69.0310511,35.8806965 69.0544431,36.5398441 C69.0778351,37.1989917 69.148011,37.8348752 69.2663076,38.4487872 L67.7144165,38.4487872 L67.4677981,36.1301386 L67.3962855,36.1301386 C67.1850893,36.4487266 66.9144106,36.7666684 66.5855861,37.0846102 C66.2567616,37.402552 65.8744697,37.6927061 65.4400471,37.9544265 C65.0049562,38.2161469 64.5110511,38.4261694 63.9583319,38.5851403 C63.4056127,38.743465 62.8007628,38.8235967 62.1424455,38.8235967 C61.319716,38.8235967 60.5959011,38.6924134 59.9723376,38.4319854 C59.3494424,38.1702651 58.8381605,37.8290592 58.4384917,37.4090142 C58.0388229,36.9876767 57.7394055,36.504948 57.5395711,35.9595357 C57.3397367,35.4141233 57.2401537,34.868711 57.2401537,34.3226524 C57.2401537,32.3904452 58.0802601,30.9015471 59.7611414,29.8553118 C61.442691,28.8090766 63.9763772,28.3095461 67.3628684,28.3547817 L67.3628684,27.9114726 C67.3628684,27.4791493 67.3214311,26.9841424 67.239225,26.4270981 C67.1563505,25.8700537 66.9745614,25.3414432 66.6918525,24.8419127 C66.409812,24.3423822 65.9867513,23.9216909 65.4226702,23.5811313 C64.8585892,23.2399255 64.0940055,23.0693226 63.1302557,23.0693226 C62.401094,23.0693226 61.6786159,23.1772419 60.9614844,23.3930804 C60.244353,23.6089189 59.5920508,23.9100589 59.0045777,24.2965004 L58.4752505,23.1029262 C59.2271358,22.6033957 60.0037497,22.2453881 60.8024189,22.0295496 C61.6024248,21.813711 62.4365162,21.7057918 63.3066981,21.7057918 C64.4823124,21.7057918 65.4407155,21.8990125 66.1812389,22.2854539 C66.9217623,22.6718954 67.5038886,23.1720721 67.9269494,23.7853379 C68.3500101,24.3992498 68.6387341,25.0868313 68.7911162,25.8487284 C68.9434982,26.6106254 69.021026,27.3667065 69.021026,28.1163254 L69.021026,34.561755 L69.0196893,34.561755 Z M67.3622,29.6853552 C66.4679578,29.6620911 65.5329467,29.696341 64.5571668,29.7874584 C63.5820551,29.8779297 62.6824662,30.0776126 61.8597367,30.3839224 C61.0363388,30.6908784 60.3552978,31.1400035 59.8146088,31.7312976 C59.2739198,32.3225918 59.0032411,33.1064605 59.0032411,34.0841961 C59.0032411,35.2428742 59.3440957,36.0958888 60.0264733,36.6413011 C60.7075143,37.1867134 61.4714297,37.4600658 62.3182196,37.4600658 C62.9999289,37.4600658 63.6114622,37.3695946 64.1521513,37.1867134 C64.6928403,37.0044785 65.1620167,36.7602062 65.5623538,36.4538964 C65.9626909,36.1475866 66.2968622,35.8005648 66.5675408,35.4141233 C66.8388879,35.0270357 67.044069,34.6302547 67.1857576,34.219903 C67.3033859,33.7649619 67.3628684,33.4353881 67.3628684,33.2298891 L67.3628684,29.6853552 L67.3622,29.6853552 Z" id="path2998" fill="#000"/><path d="M72.2618185,22.079955 L76.5632704,32.7193728 C76.7991953,33.310667 77.0224217,33.918763 77.2342863,34.544307 C77.4461508,35.1685585 77.633955,35.7436971 77.7983673,36.2658454 L77.8692116,36.2658454 C78.0342922,35.766315 78.221428,35.2034546 78.4332926,34.5779106 C78.6451572,33.9530128 78.8804137,33.310667 79.1383939,32.650227 L83.1598104,22.0793088 L84.9222294,22.0793088 L80.0212742,34.0835499 C79.5267008,35.3559633 79.0628712,36.510764 78.6277802,37.544721 C78.1933577,38.5793243 77.7515833,39.5111781 77.3051306,40.3409286 C76.8580095,41.1706791 76.40621,41.9034962 75.9463904,42.5406722 C75.4885758,43.1765558 74.9759571,43.7342463 74.4125445,44.211159 C73.7548955,44.7791892 73.1487089,45.1947106 72.5959897,45.456431 C72.0439388,45.7181514 71.6736771,45.8829383 71.4852045,45.9507917 L70.9197868,44.6208645 C71.343516,44.4386296 71.814029,44.2001732 72.3313261,43.9048492 C72.8486231,43.608879 73.3545584,43.2230838 73.8477951,42.7455249 C74.2715242,42.3364657 74.7360222,41.7968693 75.2412891,41.1254435 C75.746556,40.4553101 76.1990238,39.6423614 76.5993609,38.6872436 C76.7403812,38.3234199 76.8112255,38.0843174 76.8112255,37.9705821 C76.8112255,37.8122574 76.7410495,37.5731549 76.5993609,37.2545669 L70.4973944,22.0793088 L72.2618185,22.0793088 L72.2618185,22.079955 Z" id="path3000" fill="#000"/></g></g></svg>

<svg width="100" height="60" xmlns="http://www.w3.org/2000/svg"><g fill="none" fill-rule="evenodd"><rect fill="#FFF" width="100" height="60" rx="4"/><path d="M32.886 26.958c.037 3.825 3.5 5.097 3.538 5.113-.03.09-.553 1.814-1.824 3.595-1.099 1.54-2.24 3.073-4.035 3.105-1.765.032-2.332-1.003-4.35-1.003s-2.648.971-4.319 1.035c-1.733.063-3.054-1.666-4.161-3.2-2.264-3.137-3.994-8.866-1.67-12.732 1.153-1.92 3.215-3.137 5.453-3.168 1.702-.031 3.31 1.098 4.35 1.098 1.04 0 2.994-1.358 5.047-1.158.859.034 3.271.332 4.82 2.506-.125.075-2.88 1.612-2.849 4.81m-3.317-9.392c.92-1.069 1.54-2.556 1.371-4.035-1.327.05-2.931.847-3.882 1.915-.854.945-1.6 2.458-1.399 3.91 1.48.109 2.99-.721 3.91-1.79m13.323-1.829a41.71 41.71 0 0 1 2.257-.307 24.794 24.794 0 0 1 2.716-.136c1.411 0 2.628.164 3.65.494 1.023.33 1.863.801 2.521 1.415a5.812 5.812 0 0 1 1.323 1.943c.317.75.475 1.615.475 2.592 0 1.182-.217 2.217-.652 3.104a6.463 6.463 0 0 1-1.78 2.233c-.753.602-1.646 1.05-2.68 1.347-1.036.295-2.164.443-3.387.443-1.105 0-2.033-.08-2.785-.239v9.822h-1.658V15.738zm1.658 11.458c.4.113.846.193 1.34.238.494.045 1.022.068 1.586.068 2.116 0 3.756-.478 4.92-1.432 1.164-.955 1.746-2.353 1.746-4.194 0-.887-.153-1.66-.458-2.32a4.168 4.168 0 0 0-1.305-1.62c-.564-.42-1.234-.738-2.01-.955-.777-.216-1.635-.324-2.576-.324-.752 0-1.399.029-1.94.086-.54.057-.975.12-1.304.187v10.266zm24.47 7.366c0 .659.011 1.319.034 1.978.024.659.094 1.295.212 1.909h-1.552l-.246-2.319h-.072a5.809 5.809 0 0 1-.81.955 6.168 6.168 0 0 1-2.627 1.5 6.573 6.573 0 0 1-1.817.239c-.822 0-1.546-.132-2.17-.392-.623-.262-1.134-.603-1.534-1.023a4.14 4.14 0 0 1-.898-1.45 4.72 4.72 0 0 1-.3-1.636c0-1.933.84-3.421 2.521-4.468 1.682-1.046 4.215-1.545 7.602-1.5v-.444c0-.432-.042-.927-.124-1.484a4.553 4.553 0 0 0-.547-1.585c-.282-.5-.705-.92-1.27-1.26-.563-.342-1.328-.513-2.292-.513-.729 0-1.451.108-2.169.324a7.438 7.438 0 0 0-1.956.904l-.53-1.194a7.946 7.946 0 0 1 2.327-1.073 9.569 9.569 0 0 1 2.505-.324c1.175 0 2.134.193 2.874.58.74.386 1.323.886 1.746 1.5.423.613.712 1.3.864 2.063.152.762.23 1.518.23 2.267v6.446h-.001zm-1.658-4.877c-.894-.023-1.83.011-2.805.102-.975.09-1.875.29-2.697.597-.824.307-1.505.756-2.045 1.347-.541.592-.812 1.375-.812 2.353 0 1.159.341 2.012 1.023 2.557.682.546 1.445.82 2.292.82.682 0 1.293-.091 1.834-.274a4.708 4.708 0 0 0 2.415-1.773c.272-.387.477-.784.619-1.194.117-.455.177-.785.177-.99v-3.545zm4.9-7.605l4.301 10.64c.236.59.46 1.199.671 1.824.212.625.4 1.2.564 1.722h.071c.165-.5.352-1.063.564-1.688.212-.625.447-1.267.705-1.928l4.022-10.57h1.762l-4.9 12.004a136.65 136.65 0 0 1-1.394 3.46 32.347 32.347 0 0 1-1.323 2.797c-.447.83-.899 1.562-1.359 2.2a9.285 9.285 0 0 1-1.533 1.67c-.658.568-1.264.984-1.817 1.245a15.75 15.75 0 0 1-1.11.495l-.566-1.33c.424-.182.894-.42 1.411-.716a7.665 7.665 0 0 0 1.517-1.16c.424-.409.888-.948 1.393-1.62.506-.67.958-1.483 1.358-2.438.141-.364.212-.603.212-.716 0-.159-.07-.398-.212-.716l-6.102-15.176h1.765v.001z" fill="#000"/></g></svg>
